svgs/thin/8.svg

<svg xmlns="http://www.w3.org/2000/svg" viewBox="0 0 320 512"><!-- Font Awesome Pro 6.0.0-alpha2 by @fontawesome - https://fontawesome.com License - https://fontawesome.com/license (Commercial License) --><path d="M231.205 251.561C269.43 232.57 296 193.504 296 148C296 84.031 243.969 32 180 32H140C76.031 32 24 84.031 24 148C24 193.504 50.57 232.57 88.795 251.561C37.975 263.879 0 309.443 0 364C0 427.969 52.031 480 116 480H204C267.969 480 320 427.969 320 364C320 309.443 282.025 263.879 231.205 251.561ZM40 148C40 92.875 84.875 48 140 48H180C235.125 48 280 92.875 280 148S235.125 248 180 248H140C84.875 248 40 203.125 40 148ZM204 464H116C60.875 464 16 419.125 16 364S60.875 264 116 264H204C259.125 264 304 308.875 304 364S259.125 464 204 464Z"/></svg>

<svg xmlns="http://www.w3.org/2000/svg" viewBox="0 0 320 512"><!--! Font Awesome Pro 6.3.0 by @fontawesome - https://fontawesome.com License - https://fontawesome.com/license (Commercial License) Copyright 2023 Fonticons, Inc. --><path d="M231.2 251.6C269.4 232.6 296 193.5 296 148C296 84.03 243.1 32 180 32h-40C76.03 32 24 84.03 24 148c0 45.5 26.57 84.57 64.79 103.6C37.97 263.9 0 309.4 0 364C0 427.1 52.03 480 116 480h88C267.1 480 320 427.1 320 364C320 309.4 282 263.9 231.2 251.6zM40 148C40 92.88 84.88 48 140 48h40c55.13 0 100 44.88 100 100S235.1 248 180 248h-40C84.88 248 40 203.1 40 148zM204 464h-88c-55.13 0-100-44.88-100-100S60.88 264 116 264h88c55.13 0 100 44.88 100 100S259.1 464 204 464z"/></svg>
